assets/Pineapple/Flat/pineapple_flat.svg

<svg width="32" height="32" viewBox="0 0 32 32" fill="none" xmlns="http://www.w3.org/2000/svg">
<path d="M11.4452 5.45546C10.7922 3.91865 9.54748 2.63658 7.89937 2.00659C7.37541 3.59944 7.53859 5.28444 8.22612 6.71831C6.86723 6.29165 5.3678 6.35147 4.00012 7.00004C5.40534 9.96328 8.82595 11.3085 11.7331 10.0858L11.7355 10.0911C11.772 10.0736 11.8083 10.0558 11.8442 10.0377C11.8807 10.0214 11.9172 10.0048 11.9535 9.98768L11.951 9.98247C14.7375 8.50522 15.8604 5.00534 14.4552 2.0421C12.9786 2.74231 11.9363 3.99568 11.4452 5.45546Z" fill="#86D72F"/>
<path d="M15.6775 8.96071V8.875C18.2196 9.03017 20.6031 10.5246 21.7704 12.9862L22.907 15.3829L22.771 15.6058L24.7242 19.5355H24.8505C25.2827 20.6728 25.4081 21.8615 25.2624 23.0035L25.2032 23.0508L24.3564 25.5936V25.7008C23.6477 26.9356 22.5684 27.9738 21.1862 28.6292L20.1147 29.1373C18.7131 29.802 17.2066 29.9763 15.7877 29.7301L15.7461 29.6641L13.168 28.6641C13.168 28.6641 13.116 28.6804 13.1184 28.6947C12.1685 28.088 11.3507 27.2532 10.7568 26.2238L10.7891 26.1875L8.82425 22.0547L8.76789 22.0848L7.63252 19.6906C6.46137 17.2209 6.8143 14.4214 8.31551 12.3527L8.35159 12.4102L10.2208 10.6339V10.5439C10.49 10.3691 10.774 10.2101 11.0721 10.0687L12.1436 9.56059C12.4403 9.4199 12.7418 9.30117 13.0462 9.20375L13.0986 9.2829L15.6775 8.96071Z" fill="#F3AD61"/>
<path d="M13.029 10.546L15.1605 11.8814C15.3228 11.9786 15.5219 11.8842 15.5493 11.697L15.8623 9.16795C15.8738 9.06961 15.8288 8.97479 15.7454 8.92141L15.6775 8.87498C14.8049 8.82171 13.9135 8.92628 13.0463 9.20374L12.9076 10.29C12.8962 10.3883 12.9456 10.4926 13.029 10.546Z" fill="#E19747"/>
<path d="M8.31555 12.3527C8.82387 11.6522 9.46384 11.0356 10.2209 10.5439L11.1389 11.1403C11.2223 11.1937 11.2673 11.2885 11.2558 11.3869L10.9409 13.8823C10.9136 14.0695 10.7144 14.164 10.5522 14.0667L8.42065 12.7314C8.33727 12.678 8.2878 12.5737 8.29924 12.4753L8.31555 12.3527Z" fill="#E19747"/>
<path d="M10.7569 26.2238C10.6596 26.0551 10.5683 25.8812 10.4834 25.7023L8.76793 22.0848C8.83248 21.9452 9.00324 21.8601 9.1345 21.9516L11.266 23.287C11.3494 23.3403 11.3944 23.4352 11.3829 23.5335L11.068 26.029C11.0469 26.1737 10.8976 26.2512 10.7569 26.2238Z" fill="#E19747"/>
<path d="M15.7877 29.7301C14.8397 29.5657 13.9307 29.2136 13.1184 28.6947C13.1161 28.6804 13.1134 28.6609 13.1137 28.6475L13.4271 26.1297C13.4545 25.9426 13.6536 25.8481 13.8158 25.9454L15.9474 27.2807C16.0402 27.3296 16.0852 27.4244 16.0643 27.5273L15.7877 29.7301Z" fill="#E19747"/>
<path d="M25.2625 23.0035C25.1413 23.9537 24.8324 24.8716 24.3565 25.7008L22.4363 24.5056C22.3529 24.4522 22.308 24.3574 22.3194 24.259L22.6343 21.7636C22.6617 21.5764 22.8608 21.4819 23.023 21.5792L25.1834 22.9291C25.2175 22.9471 25.2438 22.975 25.2625 23.0035Z" fill="#E19747"/>
<path d="M22.907 15.3829L24.6213 18.9978C24.7056 19.1755 24.7819 19.3548 24.8505 19.5354C24.793 19.6623 24.6173 19.7521 24.4852 19.6663L22.3537 18.3309C22.2703 18.2776 22.2254 18.1827 22.2368 18.0844L22.5517 15.5889C22.5732 15.4229 22.7605 15.3297 22.907 15.3829Z" fill="#E19747"/>
<path d="M11.2215 17.315L9.08994 15.9796C8.92767 15.8824 8.72855 15.9768 8.70118 16.164L8.38629 18.6594C8.37485 18.7578 8.41982 18.8526 8.5032 18.906L10.6347 20.2413C10.797 20.3386 10.9961 20.2442 11.0235 20.057L11.3384 17.5615C11.3593 17.4587 11.3143 17.3638 11.2215 17.315Z" fill="#E19747"/>
<path d="M15.2431 18.056C15.4054 18.1533 15.6045 18.0588 15.6319 17.8716L15.9467 15.3762C15.9582 15.2778 15.9132 15.183 15.8298 15.1296L13.6983 13.7943C13.536 13.697 13.3369 13.7915 13.3095 13.9787L12.9947 16.4741C12.9832 16.5725 13.0282 16.6673 13.1116 16.7206L15.2431 18.056Z" fill="#E19747"/>
<path d="M19.8419 15.8751C20.0042 15.9724 20.2033 15.878 20.2307 15.6908L20.5456 13.1953C20.557 13.097 20.512 13.0022 20.4287 12.9488L18.2971 11.6134C18.1349 11.5162 17.9357 11.6106 17.9084 11.7978L17.5935 14.2933C17.582 14.3916 17.627 14.4864 17.7104 14.5398L19.8419 15.8751Z" fill="#E19747"/>
<path d="M15.8743 21.1016L13.7428 19.7663C13.5806 19.669 13.3814 19.7634 13.3541 19.9506L13.0392 22.4461C13.0277 22.5444 13.0727 22.6393 13.1561 22.6926L15.2876 24.028C15.4499 24.1252 15.649 24.0308 15.6764 23.8436L15.9913 21.3481C16.0027 21.2498 15.9577 21.155 15.8743 21.1016Z" fill="#E19747"/>
<path d="M20.4732 18.9208L18.3417 17.5854C18.1795 17.4882 17.9803 17.5826 17.953 17.7698L17.6381 20.2652C17.6266 20.3636 17.6716 20.4584 17.755 20.5118L19.8865 21.8471C20.0488 21.9444 20.2479 21.85 20.2753 21.6628L20.5901 19.1673C20.6016 19.069 20.5566 18.9741 20.4732 18.9208Z" fill="#E19747"/>
<path d="M18.4242 23.7601C18.262 23.6628 18.0628 23.7572 18.0355 23.9444L17.7206 26.4399C17.7091 26.5382 17.7541 26.633 17.8375 26.6864L19.969 28.0218C20.1313 28.119 20.3304 28.0246 20.3578 27.8374L20.6726 25.3419C20.6841 25.2436 20.6391 25.1488 20.5557 25.0954L18.4242 23.7601Z" fill="#E19747"/>
</svg>

<svg xmlns="http://www.w3.org/2000/svg" width="32" height="32" fill="none"><path fill="#86D72F" d="M11.445 5.455C10.792 3.92 9.547 2.637 7.9 2.007a6.325 6.325 0 0 0 .327 4.711A5.777 5.777 0 0 0 4 7c1.405 2.963 4.826 4.309 7.733 3.086l.002.005.11-.053a5.81 5.81 0 0 0 .108-.05l-.002-.006c2.787-1.477 3.91-4.977 2.504-7.94a5.792 5.792 0 0 0-3.01 3.413Z"/><path fill="#F3AD61" d="M15.678 8.96v-.085a7.219 7.219 0 0 1 6.092 4.111l1.137 2.397-.136.223 1.953 3.93h.127a7.184 7.184 0 0 1 .411 3.467l-.059.048-.847 2.543v.107a7.198 7.198 0 0 1-3.17 2.928l-1.071.508a7.194 7.194 0 0 1-4.327.593l-.042-.066-2.578-1s-.052.016-.05.03a7.19 7.19 0 0 1-2.361-2.47l.032-.037-1.965-4.132-.056.03-1.135-2.394a7.215 7.215 0 0 1 .683-7.338l.036.057 1.869-1.776v-.09c.269-.175.553-.334.851-.475l1.072-.508c.296-.141.598-.26.902-.357l.053.079 2.579-.322Z"/><path fill="#E19747" d="m13.029 10.546 2.132 1.335a.255.255 0 0 0 .388-.184l.313-2.529a.256.256 0 0 0-.117-.247l-.067-.046a7.188 7.188 0 0 0-2.632.329l-.138 1.086a.275.275 0 0 0 .121.256ZM8.316 12.353a7.19 7.19 0 0 1 1.905-1.81l.918.597a.256.256 0 0 1 .117.247l-.315 2.495a.255.255 0 0 1-.389.185L8.421 12.73a.275.275 0 0 1-.122-.256l.017-.122ZM10.757 26.224a7.356 7.356 0 0 1-.274-.522l-1.715-3.617c.064-.14.235-.225.366-.133l2.132 1.335a.256.256 0 0 1 .117.247l-.315 2.495c-.021.145-.17.222-.311.195ZM15.788 29.73a7.27 7.27 0 0 1-2.67-1.035.3.3 0 0 1-.004-.047l.313-2.518a.255.255 0 0 1 .389-.185l2.131 1.336a.22.22 0 0 1 .117.246l-.276 2.203ZM25.262 23.003a7.271 7.271 0 0 1-.905 2.698l-1.92-1.195a.256.256 0 0 1-.118-.247l.315-2.495a.255.255 0 0 1 .389-.185l2.16 1.35a.22.22 0 0 1 .08.075ZM22.907 15.383l1.714 3.615c.085.177.16.357.23.537-.058.127-.234.217-.366.131l-2.131-1.335a.256.256 0 0 1-.117-.247l.315-2.495c.021-.166.209-.26.355-.206ZM11.222 17.315 9.09 15.98a.255.255 0 0 0-.389.184l-.315 2.495a.256.256 0 0 0 .117.247l2.132 1.335a.255.255 0 0 0 .389-.184l.314-2.495a.22.22 0 0 0-.116-.247ZM15.243 18.056a.255.255 0 0 0 .389-.184l.315-2.496a.256.256 0 0 0-.117-.246l-2.132-1.336a.255.255 0 0 0-.389.185l-.314 2.495a.256.256 0 0 0 .117.247l2.131 1.335ZM19.842 15.875a.255.255 0 0 0 .389-.184l.315-2.496a.256.256 0 0 0-.117-.246l-2.132-1.336a.255.255 0 0 0-.389.185l-.315 2.495a.256.256 0 0 0 .117.247l2.132 1.335ZM15.874 21.102l-2.131-1.336a.255.255 0 0 0-.389.185l-.315 2.495a.256.256 0 0 0 .117.247l2.132 1.335a.255.255 0 0 0 .388-.184l.315-2.496a.256.256 0 0 0-.117-.246ZM20.473 18.92l-2.131-1.335a.255.255 0 0 0-.389.185l-.315 2.495a.256.256 0 0 0 .117.247l2.132 1.335a.255.255 0 0 0 .388-.184l.315-2.496a.256.256 0 0 0-.117-.246ZM18.424 23.76a.255.255 0 0 0-.389.184l-.314 2.496a.256.256 0 0 0 .116.246l2.132 1.336a.255.255 0 0 0 .389-.185l.315-2.495a.256.256 0 0 0-.117-.247l-2.132-1.335Z"/></svg>
